X: 42309
T: Wedding Ring, The
R: jig
M: 6/8
K: Gmajor
ABA e2d|BAG d2B|ABA e2f|g2e dBG|
ABA e2d|BAG d2B|dBG G2D|G2B dBG:|:
e2a aba|bab g2e|e2a aga|b2a ged|
e2a a2b|g3 a3|bab g2e|g2e dBG:|

